src/assets/icons/type-unknown-icon.svg

<?xml version="1.0" encoding="UTF-8" standalone="no"?>
<!-- Created with Inkscape (http://www.inkscape.org/) -->

<svg
   width="20"
   height="20"
   viewBox="0 0 5.2916665 5.2916667"
   version="1.1"
   id="svg28890"
   inkscape:version="1.2 (dc2aeda, 2022-05-15)"
   sodipodi:docname="type-unknown-icon.svg"
   xmlns:inkscape="http://www.inkscape.org/namespaces/inkscape"
   xmlns:sodipodi="http://sodipodi.sourceforge.net/DTD/sodipodi-0.dtd"
   xmlns="http://www.w3.org/2000/svg"
   xmlns:svg="http://www.w3.org/2000/svg">
  <sodipodi:namedview
     id="namedview28892"
     pagecolor="#ffffff"
     bordercolor="#000000"
     borderopacity="0.25"
     inkscape:showpageshadow="2"
     inkscape:pageopacity="0.0"
     inkscape:pagecheckerboard="0"
     inkscape:deskcolor="#d1d1d1"
     inkscape:document-units="mm"
     showgrid="false"
     inkscape:zoom="21.523008"
     inkscape:cx="11.731632"
     inkscape:cy="11.081165"
     inkscape:window-width="1390"
     inkscape:window-height="905"
     inkscape:window-x="2059"
     inkscape:window-y="322"
     inkscape:window-maximized="0"
     inkscape:current-layer="layer1" />
  <defs
     id="defs28887" />
  <g
     inkscape:label="Layer 1"
     inkscape:groupmode="layer"
     id="layer1">
    <circle
       style="fill:#b3b3b3;stroke-width:0.0900882;stroke-linecap:round"
       id="path355-7-3"
       cx="2.6458333"
       cy="2.6458333"
       r="2.6458333" />
    <path
       id="path42578-1-3-1-7"
       style="display:inline;fill:none;fill-opacity:1;stroke:#ffffff;stroke-width:0.26458333;stroke-linecap:round;stroke-miterlimit:4;stroke-dasharray:none;stroke-opacity:1"
       d="m 2.4267474,0.8201697 c -0.081083,0 -0.1460879,0.0652172 -0.1460879,0.14608789 V 1.3043471 A 1.3904124,1.3904124 0 0 0 1.9553588,1.4391741 L 1.7161348,1.199943 c -0.057153,-0.057295 -0.1491294,-0.057295 -0.2063465,0 L 1.1999289,1.5097883 c -0.057295,0.057295 -0.057295,0.1493629 0,0.2065658 L 1.439167,1.9555922 A 1.3904124,1.3904124 0 0 0 1.3043471,2.2806666 H 0.96601 c -0.0810829,0 -0.14608789,0.065217 -0.14608789,0.1460808 v 0.4382779 c 0,0.080948 0.0652172,0.1460737 0.14608789,0.1460737 H 1.3043471 A 1.3904124,1.3904124 0 0 0 1.439167,3.3361806 L 1.1999289,3.5753975 c -0.057295,0.057224 -0.057295,0.1493699 0,0.2065588 l 0.3098594,0.3098594 c 0.057224,0.057295 0.1491294,0.057295 0.2063465,0 l 0.239224,-0.239224 a 1.3904124,1.3904124 0 0 0 0.3253007,0.1348199 v 0.3383229 c 0,0.080814 0.065217,0.1459251 0.1460879,0.1459251 h 0.4382709 c 0.081083,0 0.1459394,-0.065005 0.1459394,-0.1459251 V 3.9874116 A 1.3904124,1.3904124 0 0 0 3.3362442,3.8527261 L 3.5752701,4.091752 c 0.057295,0.057224 0.149561,0.057224 0.2067781,0 L 4.0918936,3.7818926 c 0.057295,-0.057295 0.057295,-0.1493487 0,-0.2065659 L 3.8528817,3.336315 A 1.3904124,1.3904124 0 0 0 3.9875672,3.0110283 h 0.3380966 c 0.080814,0 0.1460808,-0.065217 0.1460808,-0.1460808 V 2.4266696 c 0,-0.080814 -0.065217,-0.1460737 -0.1460808,-0.1460737 H 3.9875672 A 1.3904124,1.3904124 0 0 0 3.8527473,1.9555144 l 0.2392241,-0.239231 c 0.057295,-0.057295 0.057295,-0.1493417 0,-0.2065588 L 3.782126,1.1998794 c -0.057224,-0.057295 -0.1495609,-0.057295 -0.2067781,0 L 3.3363433,1.438877 A 1.3904124,1.3904124 0 0 0 3.0110355,1.3041844 V 0.96608075 c 0,-0.0809485 -0.065146,-0.14607374 -0.1459323,-0.14607374 z m 0.2173601,1.0140705 a 0.81164427,0.81164427 0 0 1 0.00283,0 A 0.81164427,0.81164427 0 0 1 3.4583956,2.6459394 0.81164427,0.81164427 0 0 1 2.6469369,3.4576317 0.81164427,0.81164427 0 0 1 1.8352375,2.6459394 0.81164427,0.81164427 0 0 1 2.6451614,1.8342402 Z" />
  </g>
</svg>

<svg width="20" height="20" version="1.1" viewBox="0 0 5.2917 5.2917" xmlns="http://www.w3.org/2000/svg">
 <g stroke-linecap="round">
  <circle cx="2.6458" cy="2.6458" r="2.6458" fill="#b3b3b3" stroke-width=".090088"/>
  <path d="m2.4267 0.82017c-0.081083 0-0.14609 0.065217-0.14609 0.14609v0.33809a1.3904 1.3904 0 0 0-0.3253 0.13483l-0.23922-0.23923c-0.057153-0.057295-0.14913-0.057295-0.20635 0l-0.30986 0.30985c-0.057295 0.057295-0.057295 0.14936 0 0.20657l0.23924 0.23924a1.3904 1.3904 0 0 0-0.13482 0.32507h-0.33834c-0.081083 0-0.14609 0.065217-0.14609 0.14608v0.43828c0 0.080948 0.065217 0.14607 0.14609 0.14607h0.33834a1.3904 1.3904 0 0 0 0.13482 0.32508l-0.23924 0.23922c-0.057295 0.057224-0.057295 0.14937 0 0.20656l0.30986 0.30986c0.057224 0.057295 0.14913 0.057295 0.20635 0l0.23922-0.23922a1.3904 1.3904 0 0 0 0.3253 0.13482v0.33832c0 0.080814 0.065217 0.14593 0.14609 0.14593h0.43827c0.081083 0 0.14594-0.065005 0.14594-0.14593v-0.33832a1.3904 1.3904 0 0 0 0.32529-0.13469l0.23903 0.23903c0.057295 0.057224 0.14956 0.057224 0.20678 0l0.30985-0.30986c0.057295-0.057295 0.057295-0.14935 0-0.20657l-0.23901-0.23901a1.3904 1.3904 0 0 0 0.13469-0.32529h0.3381c0.080814 0 0.14608-0.065217 0.14608-0.14608v-0.43828c0-0.080814-0.065217-0.14607-0.14608-0.14607h-0.3381a1.3904 1.3904 0 0 0-0.13482-0.32508l0.23922-0.23923c0.057295-0.057295 0.057295-0.14934 0-0.20656l-0.30985-0.30985c-0.057224-0.057295-0.14956-0.057295-0.20678 0l-0.239 0.239a1.3904 1.3904 0 0 0-0.32531-0.13469v-0.3381c0-0.080948-0.065146-0.14607-0.14593-0.14607zm0.21736 1.0141a0.81164 0.81164 0 0 1 0.00283 0 0.81164 0.81164 0 0 1 0.81146 0.8117 0.81164 0.81164 0 0 1-0.81146 0.81169 0.81164 0.81164 0 0 1-0.8117-0.81169 0.81164 0.81164 0 0 1 0.80992-0.8117z" fill="none" stroke="#fff" stroke-width=".26458"/>
 </g>
</svg>
